icons/gradienter-fill.svg

<svg xmlns="http://www.w3.org/2000/svg" width="24" height="24" fill="none"><g clip-path="url(#a)"><g><path fill="#121212" d="M12 22C6.477 22 2 17.523 2 12C2 6.477 6.477 2 12 2C17.523 2 22 6.477 22 12C22 17.523 17.523 22 12 22ZM8.126 11H4.062C3.97916 11.6641 3.97916 12.3359 4.062 13H8.126C7.95695 12.3441 7.95695 11.6559 8.126 11ZM15.874 11C16.043 11.6559 16.043 12.3441 15.874 13H19.938C20.0208 12.3359 20.0208 11.6641 19.938 11H15.874ZM12 14C12.5304 14 13.0391 13.7893 13.4142 13.4142C13.7893 13.0391 14 12.5304 14 12C14 11.4696 13.7893 10.9609 13.4142 10.5858C13.0391 10.2107 12.5304 10 12 10C11.4696 10 10.9609 10.2107 10.5858 10.5858C10.2107 10.9609 10 11.4696 10 12C10 12.5304 10.2107 13.0391 10.5858 13.4142C10.9609 13.7893 11.4696 14 12 14Z"/></g></g><defs><clipPath id="a"><rect width="24" height="24" fill="white"/></clipPath></defs></svg>

<svg width="24" height="24" fill="none" xmlns="http://www.w3.org/2000/svg"><g clip-path="url(#a)"><path d="M12 22C6.477 22 2 17.523 2 12S6.477 2 12 2s10 4.477 10 10-4.477 10-10 10ZM8.126 11H4.062a8.079 8.079 0 0 0 0 2h4.064a4.007 4.007 0 0 1 0-2Zm7.748 0a4.008 4.008 0 0 1 0 2h4.064a8.083 8.083 0 0 0 0-2h-4.064ZM12 14a2 2 0 1 0 0-4 2 2 0 0 0 0 4Z" /></g><defs><clipPath id="a"><path fill="#fff" d="M0 0h24v24H0z"/></clipPath></defs></svg>
